projects/ccf-eui/src/assets/icons/organ-icons/organ-icon-ureter-right.svg

<svg width="64" height="64" viewBox="0 0 64 64" fill="currentColor" xmlns="http://www.w3.org/2000/svg">
<path d="M56.6826 36.1173L60.0959 32.6827L59.2639 31.8293L57.3439 29.9093L53.9519 33.3013C53.4786 33.7554 52.9145 34.1041 52.2968 34.3247C51.6792 34.5453 51.0218 34.6328 50.3679 34.5813C47.5606 33.1105 44.4386 32.3422 41.2693 32.3422C38.1 32.3422 34.9779 33.1105 32.1706 34.5813C31.0082 34.6074 29.8768 34.205 28.9919 33.4507L28.0106 32.4907L27.0079 31.488C26.5386 30.9973 26.0906 30.5067 25.6639 29.9733C23.4384 26.8185 22.0576 23.1463 21.6533 19.3067C21.2889 16.2717 20.189 13.3716 18.449 10.8583C16.7091 8.34505 14.3818 6.29468 11.6693 4.88534C11.1914 4.67475 10.653 4.64671 10.1559 4.80654C9.65879 4.96637 9.23757 5.30296 8.97202 5.75255C8.70647 6.20215 8.61503 6.73352 8.71503 7.24602C8.81502 7.75852 9.09951 8.21655 9.51459 8.53334C11.8798 9.68764 13.7883 11.6036 14.9333 13.9733C16.5189 16.8388 17.54 19.9818 17.9413 23.232C18.6684 26.8228 20.257 30.1832 22.5706 33.024C23.8812 34.5536 25.3077 35.98 26.8373 37.2907C27.1098 37.8665 27.2692 38.4894 27.3066 39.1253C26.4249 40.5485 25.9525 42.1872 25.9413 43.8613C25.9413 49.0667 30.6133 53.4827 37.0133 54.8693C37.7277 55.4666 38.3066 56.2095 38.7113 57.0482C39.1159 57.887 39.3371 58.8024 39.3599 59.7333H43.2639C43.2717 58.7717 43.4918 57.8237 43.9085 56.957C44.3253 56.0904 44.9283 55.3265 45.6746 54.72C46.3379 54.5775 46.9931 54.3995 47.6373 54.1867C52.9706 52.3947 56.6826 48.4053 56.6826 43.7547C56.626 42.1743 56.2102 40.6276 55.4666 39.232C55.4718 38.0789 55.9052 36.9689 56.6826 36.1173Z" />
</svg>

<svg xmlns="http://www.w3.org/2000/svg" width="64" height="64" fill="currentColor" viewBox="0 0 64 64"><path d="m56.683 36.117 3.413-3.434-.832-.854-1.92-1.92-3.392 3.392a4.65 4.65 0 0 1-3.584 1.28 19.6 19.6 0 0 0-18.197 0 4.74 4.74 0 0 1-3.18-1.13l-.98-.96-1.003-1.003c-.47-.49-.917-.981-1.344-1.515a22.6 22.6 0 0 1-4.01-10.666 18.77 18.77 0 0 0-9.985-14.422 2.133 2.133 0 0 0-2.154 3.648 11.73 11.73 0 0 1 5.418 5.44 25.6 25.6 0 0 1 3.008 9.259 22.6 22.6 0 0 0 4.63 9.792 39 39 0 0 0 4.266 4.267c.273.576.432 1.198.47 1.834a9.1 9.1 0 0 0-1.366 4.736c0 5.206 4.672 9.622 11.072 11.008a6.55 6.55 0 0 1 2.347 4.864h3.904a6.53 6.53 0 0 1 2.41-5.013q.997-.213 1.963-.533c5.334-1.792 9.046-5.782 9.046-10.432a10.4 10.4 0 0 0-1.216-4.523 4.65 4.65 0 0 1 1.216-3.115"/></svg>
